packages/symbols/svgs/solid/handshake-solid.svg

<svg width="16" height="16" viewBox="0 0 16 16" fill="none" xmlns="http://www.w3.org/2000/svg">
<g clip-path="url(#clip0_1456_3295)">
<path d="M11.024 8.94001C10.8983 8.81857 10.7299 8.75137 10.5551 8.75289C10.3803 8.75441 10.2131 8.82453 10.0895 8.94813C9.96585 9.07174 9.89573 9.23894 9.89422 9.41374C9.8927 9.58854 9.95989 9.75694 10.0813 9.88268L11.9613 11.7627L11.0833 12.6407L9.20333 10.7607C9.14183 10.697 9.06827 10.6462 8.98693 10.6113C8.9056 10.5763 8.81812 10.5579 8.7296 10.5572C8.64108 10.5564 8.55329 10.5733 8.47136 10.6068C8.38943 10.6403 8.315 10.6898 8.2524 10.7524C8.18981 10.815 8.1403 10.8894 8.10678 10.9714C8.07326 11.0533 8.0564 11.1411 8.05716 11.2296C8.05793 11.3181 8.07632 11.4056 8.11126 11.4869C8.1462 11.5683 8.19699 11.6418 8.26066 11.7033L9.96533 13.4087C9.48474 13.6091 8.96418 13.6951 8.44466 13.66C8.39846 14.1309 8.21276 14.5773 7.91133 14.942C8.16136 14.9845 8.4144 15.0068 8.668 15.0087C9.2808 15.0096 9.88776 14.8895 10.4541 14.6553C11.0203 14.4212 11.5348 14.0775 11.968 13.644L13.3733 12.22C13.4972 12.0945 13.5663 11.9251 13.5655 11.7489C13.5648 11.5726 13.4942 11.4038 13.3693 11.2793L11.024 8.94001Z" fill="black"/>
<path d="M1.214 8.57075C1.41256 8.37683 1.64333 8.21893 1.896 8.10408C1.49961 7.44077 1.30203 6.67758 1.32676 5.90525C1.35149 5.13293 1.59749 4.38394 2.03551 3.74735C2.47352 3.11076 3.08513 2.61334 3.79762 2.31424C4.51011 2.01513 5.2935 1.92691 6.05467 2.06008L6.34333 1.77141C6.62559 1.48857 6.93484 1.23402 7.26667 1.01141C6.20417 0.612486 5.04272 0.559867 3.9485 0.861084C2.85429 1.1623 1.8834 1.80192 1.17475 2.68841C0.466111 3.57489 0.0560377 4.66282 0.00321441 5.79651C-0.0496088 6.93019 0.257525 8.05154 0.880666 9.00008C0.975293 8.8449 1.08711 8.70088 1.214 8.57075V8.57075Z" fill="black"/>
<path d="M7.29235 12.1874L4.14714 9.04224C3.46737 8.36247 2.36524 8.36247 1.68547 9.04224C1.0057 9.72201 1.0057 10.8241 1.68547 11.5039L4.83068 14.6491C5.51045 15.3289 6.61258 15.3289 7.29235 14.6491C7.97213 13.9694 7.97213 12.8672 7.29235 12.1874Z" fill="black"/>
<path d="M14.424 2.24267C13.4149 1.23362 12.0464 0.666748 10.6193 0.666748C9.19231 0.666748 7.82374 1.23362 6.81467 2.24267L3.72334 5.33334L4.19534 5.80467C4.58589 6.19427 5.11502 6.41306 5.66667 6.41306C6.21832 6.41306 6.74745 6.19427 7.138 5.80467L8.33333 4.61067L13.9493 10.328L14.4253 9.852C15.4344 8.84294 16.0013 7.47436 16.0013 6.04734C16.0013 4.62031 15.4344 3.25174 14.4253 2.24267H14.424Z" fill="black"/>
</g>
<defs>
<clipPath id="clip0_1456_3295">
<rect width="16" height="16" fill="white"/>
</clipPath>
</defs>
</svg>

<svg width="16" height="16" viewBox="0 0 16 16" xmlns="http://www.w3.org/2000/svg"><g clip-path="url(#a)"><path d="M11.024 8.94a.667.667 0 0 0-.943.943l1.88 1.88-.878.878-1.88-1.88a.666.666 0 1 0-.942.942l1.704 1.706c-.48.2-1 .286-1.52.251-.047.47-.232.917-.534 1.282.25.043.503.065.757.067a4.656 4.656 0 0 0 3.3-1.365l1.405-1.424a.666.666 0 0 0-.004-.94l-2.345-2.34Zm-9.81-.37a2.43 2.43 0 0 1 .682-.466A4.035 4.035 0 0 1 6.055 2.06l.288-.289c.283-.282.592-.537.924-.76A5.379 5.379 0 0 0 .88 9.001c.094-.156.206-.3.333-.43Zm6.078 3.617L4.147 9.042a1.74 1.74 0 0 0-2.462 2.462l3.146 3.145a1.74 1.74 0 1 0 2.461-2.462Z"/><path d="M14.424 2.243a5.38 5.38 0 0 0-7.61 0l-3.09 3.09.471.472a2.083 2.083 0 0 0 2.943 0L8.333 4.61l5.616 5.717.476-.476a5.38 5.38 0 0 0 0-7.61h-.001Z"/></g><defs><clipPath id="a"><path fill="#fff" d="M0 0h16v16H0z"/></clipPath></defs></svg>
